svg/white/hight.svg

<svg width="32" height="32" viewBox="0 0 32 32" version="1.1" xmlns="http://www.w3.org/2000/svg" xmlns:xlink="http://www.w3.org/1999/xlink"><title>svg/white/hight</title><desc>Created with Sketch.</desc><g id="white/hight" stroke="none" stroke-width="1" fill="none" fill-rule="evenodd"><path d="M16,32 C7.163444,32 0,24.836556 0,16 C0,7.163444 7.163444,0 16,0 C24.836556,0 32,7.163444 32,16 C32,24.836556 24.836556,32 16,32 Z M26.4964238,10.3321854 L18.0407947,24.2712583 L12.9992053,24.2712583 L16.8741722,17.8754967 L13.0230464,17.8754967 L8.53298013,25.2789404 C12.9468182,28.8687863 19.28382,28.8337448 23.6576881,25.1953059 C28.0315561,21.5568669 29.2196075,15.3321297 26.493245,10.338543 L26.4964238,10.3321854 Z M19.1136424,7.83046358 L15.4437086,13.8701987 L19.3011921,13.8701987 L23.5750993,6.82119205 C19.1612613,3.23134617 12.8242595,3.26638765 8.45039141,6.90482659 C4.07652333,10.5432655 2.88847198,16.7680028 5.61483444,21.7615894 L14.0672848,7.83046358 L19.1136424,7.83046358 Z" id="Combined-Shape" fill="#FFF" fill-rule="nonzero"/></g></svg>

<svg width="32" height="32" viewBox="0 0 32 32" xmlns="http://www.w3.org/2000/svg"><path d="M16 32C7.163 32 0 24.837 0 16S7.163 0 16 0s16 7.163 16 16-7.163 16-16 16zm10.496-21.668l-8.455 13.94h-5.042l3.875-6.397h-3.851l-4.49 7.404a11.905 11.905 0 0 0 17.96-14.94l.003-.007zM19.114 7.83l-3.67 6.04H19.3l4.274-7.049a11.905 11.905 0 0 0-17.96 14.94l8.452-13.93h5.047z" fill="#FFF"/></svg>
